X:107
T:Majornas polska
T:Polska efter Anders Pettersson (SvL Västergötland 107)
R:Polska
O:Hålanda, Västergötland
S:Anders Pettersson
N:SvL: Låten kallades 'Majornas polska' och handlade om de lösa fruntimmern i Majorna i Göteborg.
B:Svenska Låtar Västergötland
M:3/4
L:1/8
K:D
D>(C D)>(E F)>G|(A>B) G4|{/A}G>(F G)>(A B)>d|d>c A4:|
|:A>G (FA) (FA)|F(A G)(B d)B|{Bc}(B>A) (A>F) (F>A)|(E>C) D2 z2:|

